X: 19
T: Silver Spear, The
Z: Tony Carrigan
S: https://thesession.org/tunes/182#setting55560
R: reel
M: 4/4
L: 1/8
K: Dmaj
|:FA A2 BAFA|dfed BddA|FA A2 BAFA|dfed B2 AG|
FA A2 BAFA|dfed Bdef|g3 e f3 e|1 dfed B2 AG:|2 dfed Bcde||
|:fa a2 bfaf|gfed Bdde|faaf bfaf|gfed B2 A2|
fa a2 bfaf|gfed Bdef|g3 e f3 e|1 dfed B2 A2:|2 dfed B2 AG||

